X:195
T: Verschnapplied (2-99) S. 289
N: P0970
O: Lothringen
S: PINCK, Louis: Verklingende Weisen, Bd 2, Metz 1928]
R: ???]
M: 2/4
L: 1/16
K: F
C2 | C2F2F2F2 | E2GGG2
G2 | G3GG2G2 | A4F2
FF | A2A2G2G2 | c2AAG2G2 |
c2cBA2F2 | G4F2

@@@ Tune index: 7745
